src/assets/icons/file.svg

<svg width="100%" height="100%" viewBox="0 0 430 430" fill="none" xmlns="http://www.w3.org/2000/svg">
<g clip-path="url(#clip0)">
<path d="M401.968 127.359C387.986 115.467 367.343 108.3 347.91 108.594C349.215 102.722 347.06 95.9511 346.129 90.1046C344.485 79.7851 343.312 69.2943 342.835 58.8498C342.757 57.138 341.818 55.9334 340.598 55.3103C340.375 53.6819 339.794 52.0466 338.337 50.5525C324.457 36.3462 311.309 16.0316 292.941 7.16915C292.262 3.39578 289.554 0.0578822 284.537 0.0185038C237.443 -0.340534 190.492 4.90605 143.451 4.1347C103.25 3.47685 64.2937 -1.89482 25.469 11.0885C22.4577 12.0961 21.6145 15.6471 22.8005 17.9843C22.5318 18.5171 22.3488 19.1379 22.2839 19.849C15.5989 91.6033 13.1621 163.96 11.5429 235.99C10.7947 269.214 10.6048 302.416 9.54388 335.64C8.86519 356.928 5.24933 382.936 12.6339 403.515C22.819 431.902 88.1199 428.196 110.074 429.317C181.972 432.974 253.738 420.688 325.708 423.296C332.053 423.526 334.835 418.305 334.306 413.392C337.584 414.175 341.149 412.861 342.319 408.333C347.433 388.518 348.415 367.824 349.863 347.486C350.963 332.066 358.925 308.282 352.782 294.04C352.629 293.688 352.326 293.547 352.122 293.262C374.282 260.611 393.117 224.901 410.733 195.829C411.567 195.437 412.382 194.874 413.13 193.945C429.933 173.063 420.742 143.328 401.968 127.359ZM287.993 17.2407C298.56 31.2733 309.581 45.2735 321.629 58.0668C318.363 59.4543 315.182 61.1499 312.044 62.5351C305.027 65.6298 297.99 68.6804 290.958 71.7404C290.972 53.6588 291.006 34.9587 287.391 17.3751C287.576 17.3079 287.817 17.3149 287.993 17.2407ZM333.72 335.573C331.733 358.473 331.193 381.627 328.126 404.418C328.066 404.879 328.182 405.268 328.191 405.704C327.399 405.463 326.653 405.15 325.708 405.118C274.653 403.517 223.864 408.379 172.932 411.193C146.759 412.641 120.656 412.592 94.4807 411.328C58.9197 409.609 26.5414 409.692 26.8843 368.702C27.8502 253.122 40.6713 135.172 31.0954 19.8884C68.6392 17.7967 105.931 20.8636 143.453 22.5916C187.131 24.6045 231.522 19.8281 275.336 18.3155C275.552 40.5597 274.254 62.5444 273.733 84.8487C273.564 92.0712 281.046 94.7095 286.73 92.3075C297.01 87.9643 307.288 83.6164 317.554 79.2408C321.958 77.3622 327.329 75.7083 331.844 73.1534C331.221 78.6177 330.827 84.1144 330.649 89.6436C330.452 95.8399 329.942 104.726 333.459 110.463C331.791 110.855 330.081 111.142 328.476 111.672C327.26 112.073 326.391 112.837 325.715 113.722C324.432 114.058 323.16 114.635 321.974 115.784C269.735 166.346 242.891 239.047 181.708 280.958C180.828 281.56 180.198 282.269 179.732 283.031C177.618 283.448 175.626 284.761 174.813 286.952C162.063 321.297 155.309 358.336 150.419 394.541C149.657 400.177 152.61 405.493 158.867 405.632C197.902 406.498 232.27 387.742 269.548 379.359C274.222 378.312 275.959 374.687 275.725 371.03C297.937 358.45 317.288 339.277 334.633 317.248C334.13 324.065 334.137 330.783 333.72 335.573ZM171.021 376.397C173.029 378.359 175.023 380.328 177.293 382.09C178.82 383.274 180.603 384.638 182.508 385.936C178.069 386.7 173.606 387.342 169.075 387.671C169.638 383.895 170.386 380.159 171.021 376.397ZM181.016 377.265C177.847 375.241 174.887 372.85 172.075 370.288C172.719 366.64 173.335 362.987 173.967 359.334C177.777 363.001 181.694 366.55 185.831 369.902C190.638 373.8 195.658 378.178 201.013 381.636C198.574 382.292 196.151 383.031 193.7 383.619C189.709 381.238 184.78 379.668 181.016 377.265ZM179.735 356.279C187.346 358.51 194.293 363.085 200.119 368.327C202.257 370.249 204.091 372.429 205.808 374.701C201.481 371.611 196.823 368.882 192.514 365.871C188.153 362.821 183.904 359.601 179.735 356.279ZM207.656 358.556C198.252 351.378 187.661 346.974 176.1 347.537C178.743 333.593 181.442 319.662 183.733 305.666C195.903 307.003 206.41 313.331 207.232 327.531C207.557 333.152 212.041 335.997 217.32 335.216C229.229 333.456 232.94 342.094 227.867 351.704C225.238 356.682 228.411 364.004 234.702 363.615C240.73 363.242 245.478 364.569 250.113 366.27C240.982 368.947 231.96 372.028 222.926 375.019C219.278 368.375 212.741 362.438 207.656 358.556ZM221.297 319.458C220.283 316.586 218.828 314.008 217.184 311.601C217.485 311.402 217.791 311.212 218.055 310.88C239.958 283.48 267.778 262.672 293.656 239.267C317.395 217.795 341.286 186.89 359.184 160.047C362.205 162.204 365.128 164.305 367.776 166.339C370.314 168.291 373.9 171.407 377.924 174.525C332.143 226.912 307.057 299.848 244.843 335.464C241.869 326.264 233.391 320.028 221.297 319.458ZM283.756 229.37C258.545 253.754 230.396 275.111 212.02 305.539C204.965 299.118 195.361 295.65 185.264 296.134C185.445 294.911 185.681 293.7 185.852 292.477C186.557 292.352 187.277 292.178 188.025 291.768C251.42 256.962 280.921 185.493 328.18 133.659C334.135 141.317 342.692 148.095 351.197 154.301C324.239 174.648 307.858 206.058 283.756 229.37ZM396.388 186.744C356.097 247.442 318.958 305.513 269.807 359.42C265.304 352.163 255.047 349.045 245.629 348.081C246.062 345.654 246.092 343.361 245.944 341.144C246.062 341.118 246.168 341.137 246.289 341.095C313.841 316.748 346.618 234.25 390.661 182.653C393.316 183.862 395.929 184.682 398.347 184.761C397.645 185.312 396.955 185.887 396.388 186.744ZM404.263 171.94C403.976 171.629 403.682 171.291 403.392 170.921C401.402 168.375 396.455 166.621 393.749 164.905C384.155 158.813 374.82 152.297 365.584 145.677C362.395 143.39 347.007 129.328 335.902 123.263C335.912 123.21 335.939 123.159 335.949 123.106C352.863 122.974 368.302 125.742 383.55 134.479C392.063 139.355 399.438 146.988 403.107 156.151C405.322 161.69 405.153 166.825 404.263 171.94Z" fill="#444444"/>
</g>
<defs>
<clipPath id="clip0">
<rect width="430" height="430" fill="white"/>
</clipPath>
</defs>
</svg>

<svg xmlns="http://www.w3.org/2000/svg" width="100%" height="100%" viewBox="0 0 430 430" fill="none"><g clip-path="url(#A)"><path d="M401.968 127.359c-13.982-11.892-34.625-19.059-54.058-18.765 1.305-5.872-.85-12.643-1.781-18.489-1.644-10.32-2.817-20.81-3.294-31.255-.078-1.712-1.017-2.916-2.237-3.54-.223-1.628-.804-3.264-2.261-4.758-13.88-14.206-27.028-34.521-45.396-43.383-.679-3.773-3.387-7.111-8.404-7.151-47.094-.359-94.045 4.888-141.086 4.116-40.201-.658-79.157-6.03-117.982 6.954-3.011 1.008-3.855 4.559-2.669 6.896a5.15 5.15 0 0 0-.517 1.865C15.599 91.603 13.162 163.96 11.543 235.99l-1.999 99.65c-.679 21.288-4.295 47.296 3.09 67.875 10.185 28.387 75.486 24.681 97.44 25.802 71.898 3.657 143.664-8.629 215.634-6.021 6.345.23 9.127-4.991 8.598-9.904 3.278.783 6.843-.531 8.013-5.059 5.114-19.815 6.096-40.509 7.544-60.847 1.1-15.42 9.062-39.204 2.919-53.446-.153-.352-.456-.493-.66-.778 22.16-32.651 40.995-68.361 58.611-97.433a6.58 6.58 0 0 0 2.397-1.884c16.803-20.882 7.612-50.617-11.162-66.586zM287.993 17.241c10.567 14.033 21.588 28.033 33.636 40.826-3.266 1.388-6.447 3.083-9.585 4.468l-21.086 9.205c.014-18.082.048-36.782-3.567-54.365.185-.067.426-.06.602-.134zm45.727 318.332c-1.987 22.9-2.527 46.054-5.594 68.845-.06.461.056.85.065 1.286-.792-.241-1.538-.554-2.483-.586-51.055-1.601-101.844 3.261-152.776 6.075-26.173 1.448-52.276 1.399-78.451.135-35.561-1.719-67.939-1.636-67.596-42.626.966-115.58 13.787-233.53 4.211-348.814 37.544-2.092 74.836.975 112.358 2.703 43.678 2.013 88.069-2.764 131.883-4.276.216 22.244-1.082 44.229-1.603 66.533-.169 7.223 7.313 9.861 12.997 7.459l30.824-13.067c4.404-1.879 9.775-3.532 14.29-6.087-.623 5.464-1.017 10.961-1.195 16.49-.197 6.196-.707 15.082 2.81 20.819-1.668.392-3.378.679-4.983 1.209-1.216.401-2.085 1.165-2.761 2.05-1.283.336-2.555.913-3.741 2.062-52.239 50.562-79.083 123.263-140.266 165.174a6.73 6.73 0 0 0-1.976 2.073c-2.114.417-4.106 1.73-4.919 3.921-12.75 34.345-19.504 71.384-24.394 107.589-.762 5.636 2.191 10.952 8.448 11.091 39.035.866 73.403-17.89 110.681-26.273 4.674-1.047 6.411-4.672 6.177-8.329 22.212-12.58 41.563-31.753 58.908-53.782-.503 6.817-.496 13.535-.913 18.325zm-162.699 40.824c2.008 1.962 4.002 3.931 6.272 5.693 1.527 1.184 3.31 2.548 5.215 3.846-4.439.764-8.902 1.406-13.433 1.735.563-3.776 1.311-7.512 1.946-11.274zm9.995.868c-3.169-2.024-6.129-4.415-8.941-6.977l1.892-10.954c3.81 3.667 7.727 7.216 11.864 10.568 4.807 3.898 9.827 8.276 15.182 11.734l-7.313 1.983c-3.991-2.381-8.92-3.951-12.684-6.354zm-1.281-20.986c7.611 2.231 14.558 6.806 20.384 12.048 2.138 1.922 3.972 4.102 5.689 6.374-4.327-3.09-8.985-5.819-13.294-8.83-4.361-3.05-8.61-6.27-12.779-9.592zm27.921 2.277c-9.404-7.178-19.995-11.582-31.556-11.019l7.633-41.871c12.17 1.337 22.677 7.665 23.499 21.865.325 5.621 4.809 8.466 10.088 7.685 11.909-1.76 15.62 6.878 10.547 16.488-2.629 4.978.544 12.3 6.835 11.911 6.028-.373 10.776.954 15.411 2.655-9.131 2.677-18.153 5.758-27.187 8.749-3.648-6.644-10.185-12.581-15.27-16.463zm13.641-39.098c-1.014-2.872-2.469-5.45-4.113-7.857.301-.199.607-.389.871-.721 21.903-27.4 49.723-48.208 75.601-71.613 23.739-21.472 47.63-52.377 65.528-79.22l8.592 6.292c2.538 1.952 6.124 5.068 10.148 8.186-45.781 52.387-70.867 125.323-133.081 160.939-2.974-9.2-11.452-15.436-23.546-16.006zm62.459-90.088c-25.211 24.384-53.36 45.741-71.736 76.169-7.055-6.421-16.659-9.889-26.756-9.405l.588-3.657c.705-.125 1.425-.299 2.173-.709 63.395-34.806 92.896-106.275 140.155-158.109 5.955 7.658 14.512 14.436 23.017 20.642-26.958 20.347-43.339 51.757-67.441 75.069zm112.632-42.626c-40.291 60.698-77.43 118.769-126.581 172.676-4.503-7.257-14.76-10.375-24.178-11.339.433-2.427.463-4.72.315-6.937.118-.026.224-.007.345-.049 67.552-24.347 100.329-106.845 144.372-158.442 2.655 1.209 5.268 2.029 7.686 2.108-.702.551-1.392 1.126-1.959 1.983zm7.875-14.804a16.61 16.61 0 0 1-.871-1.019c-1.99-2.546-6.937-4.3-9.643-6.016-9.594-6.092-18.929-12.608-28.165-19.228-3.189-2.287-18.577-16.349-29.682-22.414.01-.053.037-.104.047-.157 16.914-.132 32.353 2.636 47.601 11.373 8.513 4.876 15.888 12.509 19.557 21.672 2.215 5.539 2.046 10.674 1.156 15.789z" fill="#444"/></g><defs><clipPath id="A"><path fill="#fff" d="M0 0h430v430H0z"/></clipPath></defs></svg>
